src/static/logos/tectonic.svg

<?xml version="1.0" encoding="UTF-8" standalone="no"?>
<svg width="256px" height="278px" viewBox="0 0 256 278" version="1.1" xmlns="http://www.w3.org/2000/svg" xmlns:xlink="http://www.w3.org/1999/xlink" preserveAspectRatio="xMidYMid">
	<g>
		<path d="M180.168339,100.573429 L128.099097,77.3853039 L76.043726,100.556783 L128.099097,130.63365 L128.099097,190.75132 L174.217331,157.242566 L180.168339,100.573429 L180.168339,100.573429 Z" fill="#FFFFFF"></path>
		<path d="M38.2125138,78.7142237 L76.043726,100.556783 L128.099097,77.3853039 L180.168339,100.573429 L174.217331,157.242566 L128.099097,190.75132 L128.099097,234.430889 L207.723311,176.582649 L218.0051,78.716998 L128.099097,38.6912647 L38.2125138,78.7142237 L38.2125138,78.7142237 Z" fill="#68C28D"></path>
		<path d="M128.099097,0.321826094 L0.686481416,57.0519983 L15.2685327,195.778465 L128.096323,277.758114 L240.940759,195.778465 L255.520035,57.0603214 L128.099097,0.321826094 L128.099097,0.321826094 Z M207.720537,176.588197 L128.099097,234.430889 L128.099097,130.63365 L38.2125138,78.7142237 L128.099097,38.6912647 L218.0051,78.716998 L207.720537,176.588197 L207.720537,176.588197 Z" fill="#243A4C"></path>
	</g>
</svg>

<svg width="256" height="278" xmlns="http://www.w3.org/2000/svg" preserveAspectRatio="xMidYMid"><path d="M180.168 100.573L128.1 77.385l-52.055 23.172 52.055 30.077v60.117l46.118-33.508 5.951-56.67z" fill="#FFF"/><path d="M38.213 78.714l37.83 21.843L128.1 77.385l52.07 23.188-5.952 56.67L128.1 190.75v43.68l79.624-57.848 10.282-97.866L128.1 38.691 38.213 78.714z" fill="#68C28D"/><path d="M128.1.322L.685 57.052 15.27 195.778l112.827 81.98 112.845-81.98L255.52 57.06 128.1.322zm79.62 176.266l-79.62 57.843V130.634l-89.887-51.92 89.886-40.023 89.906 40.026-10.284 97.871z" fill="#243A4C"/></svg>
